!!!COM: Bach, Johann Sebastian
!!!CDT: 1685/3//-1750/7/28/
!!!OTL@@DE: Wer nur den lieben Gott laesst walten
!!!SCT: BH 339
!!!SCT: BWV 179
!!!AGN: 4-Part Chorale
**harm	**root	**kern	**kern	**kern	**kern
*	*Iorgan	*Iorgan	*Iorgan	*Iorgan	*Iorgan
!	!	!bass	!tenor	!alto	!soprno
*	*	*clefF4	*clefF4	*clefG2	*clefG2
*M4/4	*M4/4	*M4/4	*M4/4	*M4/4	*M4/4
*met(c)	*met(c)	*met(c)	*met(c)	*met(c)	*met(c)
*MM60	*MM60	*MM60	*MM60	*MM60	*MM60
*k[f#c#]	*k[f#c#]	*k[f#c#]	*k[f#c#]	*k[f#c#]	*k[f#c#]
*b:	*b:	*b:	*b:	*b:	*b:
*>A	*>A	*>A	*>A	*>A	*>A
i	4AA	8B	4d	4f#	4f#
.	.	8A	.	.	.
=1	=1	=1	=1	=1	=1
VI	4FF	4G	8d	16f#	4b
.	.	.	.	16e	.
.	.	.	16c#	4g	.
.	.	.	16B	.	.
V	4EE	4F#	8A#	.	4cc#
.	.	.	8f#	16f#	.
.	.	.	.	16e	.
I	4AA	4BB	4f#	8d	4dd
.	.	.	.	4b	.
V/V	4BB	4C#	4e#	.	4cc#
.	.	.	.	[8a	.
=2	=2	=2	=2	=2	=2
V7b/IV	4AA	4D#	4f#	8a]	4b
.	.	.	.	16g#	.
.	.	.	.	16f#	.
Vb/V	4BB	4E#	4c#	8g#	4cc#
.	.	.	.	8g#	.
V7	2EE	2F#	4.c#	8g#	4.a#
.	.	.	.	8f#	.
.	.	.	.	8e	.
.	.	.	8B	8d	8g#
=3	=3	=3	=3	=3	=3
V;	4EE;	4F#;	4A#;	4c#;	4f#;
vii/IV	4CC#	4D#	4F#	8f#	4a
.	.	.	.	8e	.
V7/IV	4AA	4BB	4B	4d#	4a
iv	4DD	4G	4B	4e	4g
=4	=4	=4	=4	=4	=4
V7d	8EE	8E	8A#	8c#	4f#
ib	8AA	8D	8B	8d	.
ii7Dc	8BB	8G	8c#	8e	4b
ic	8AA	8F#	8d	8f#	.
vii7D/V	4DD#	4E#	8d	4g#	4b
.	.	.	8c#	.	.
V	4EE	4F#	4c#	4f#	4a#
=5	=5	=5	=5	=5	=5
I	2.AA	2.BB;	2.d#;	2.f#;	2.b;
!!linebreak: 2
=:|!	=:|!	=:|!	=:|!	=:|!	=:|!
*>B	*>B	*>B	*>B	*>B	*>B
V	4EE	4F#	4f#	4a#	4cc#
=6	=6	=6	=6	=6	=6
i	4AA	4B	16f#	4b	4dd
.	.	.	16d	.	.
.	.	.	4g	.	.
V7/III	4GG	8A	.	4cc#	4ee
.	.	8G	16f#	.	.
.	.	.	16g	.	.
III	4CC	8F#	8d	8dd	4ff#
.	.	8E	8e	8a	.
III	4CC	4D	4f#	8dd	4ff#
.	.	.	.	8cc	.
=7	=7	=7	=7	=7	=7
iv	4DD	8E	8g	4b	4ee
.	.	16F#	8e	.	.
.	.	16G	.	.	.
V7/III	4GG	8A	8a	4cc#	4ee
.	.	8AA	8g	.	.
III;	4CC;	4D;	4f#;	4a;	4dd;
III	4CC	4D	4d	4a	4ff#
=8	=8	=8	=8	=8	=8
iv	4DD	4E	8d	4g	4ee
.	.	.	8c#	.	.
vii7D/V	4DD#	4E#	8B	4g#	4dd
.	.	.	16A#	.	.
.	.	.	16B	.	.
V7	4EE	4F#	8F#	4a#	4cc#
.	.	.	8e	.	.
VI	4FF	4G	8d	4b	4b
.	.	.	8c#	.	.
=9	=9	=9	=9	=9	=9
vii7D/V	4DD#	8G#	4.B	8e#	4dd
.	.	8E#	.	8g#	.
V7	4EE	8F#	.	8g	4cc#
.	.	8FF#	8A#	16f#	.
.	.	.	.	16e	.
I;	4AA;	4BB;	4F#;	4d#;	4b;
==	==	==	==	==	==
*-	*-	*-	*-	*-	*-
!!chor2scor: -l 2 -s 0.6 -o %b.pmx
!!!YEC: Copyright 2003 by Craig Stuart Sapp
!!!license: GNU General Public License (http://www.gnu.org/copyleft/gpl.html)
!!!SMA: 371 Bach Chorales, edited by Ludwig Erk, C.F. Peters
!!!PDT: 1850, 1865
!!!ONB: Harmony and Root analysis done manually by Craig Sapp
